bernoullicharts/arctan_x_two-coin_special_case__bits.svg

<?xml version="1.0" encoding="utf-8" standalone="no"?>
<!DOCTYPE svg PUBLIC "-//W3C//DTD SVG 1.1//EN"
  "http://www.w3.org/Graphics/SVG/1.1/DTD/svg11.dtd">
<!-- Created with matplotlib (https://matplotlib.org/) -->
<svg height="345.6pt" version="1.1" viewBox="0 0 460.8 345.6" width="460.8pt" xmlns="http://www.w3.org/2000/svg" xmlns:xlink="http://www.w3.org/1999/xlink">
 <defs>
  <style type="text/css">
*{stroke-linecap:butt;stroke-linejoin:round;}
  </style>
 </defs>
 <g id="figure_1">
  <g id="patch_1">
   <path d="M 0 345.6 
L 460.8 345.6 
L 460.8 0 
L 0 0 
z
" style="fill:#ffffff;"/>
  </g>
  <g id="axes_1">
   <g id="patch_2">
    <path d="M 57.6 307.584 
L 414.72 307.584 
L 414.72 41.472 
L 57.6 41.472 
z
" style="fill:#ffffff;"/>
   </g>
   <g id="matplotlib.axis_1">
    <g id="xtick_1">
     <g id="line2d_1">
      <defs>
       <path d="M 0 0 
L 0 3.5 
" id="m3ca7a8ebe7" style="stroke:#000000;stroke-width:0.8;"/>
      </defs>
      <g>
       <use style="stroke:#000000;stroke-width:0.8;" x="73.800255" xlink:href="#m3ca7a8ebe7" y="307.584"/>
      </g>
     </g>
     <g id="text_1">
      <text style="font-family:DejaVu Sans;font-size:10px;font-style:normal;font-weight:normal;text-anchor:middle;" transform="rotate(-0, 73.800255, 322.182437)" x="73.800255" y="322.182437">0.0</text>
     </g>
    </g>
    <g id="xtick_2">
     <g id="line2d_2">
      <g>
       <use style="stroke:#000000;stroke-width:0.8;" x="138.744153" xlink:href="#m3ca7a8ebe7" y="307.584"/>
      </g>
     </g>
     <g id="text_2">
      <text style="font-family:DejaVu Sans;font-size:10px;font-style:normal;font-weight:normal;text-anchor:middle;" transform="rotate(-0, 138.744153, 322.182437)" x="138.744153" y="322.182437">0.2</text>
     </g>
    </g>
    <g id="xtick_3">
     <g id="line2d_3">
      <g>
       <use style="stroke:#000000;stroke-width:0.8;" x="203.688051" xlink:href="#m3ca7a8ebe7" y="307.584"/>
      </g>
     </g>
     <g id="text_3">
      <text style="font-family:DejaVu Sans;font-size:10px;font-style:normal;font-weight:normal;text-anchor:middle;" transform="rotate(-0, 203.688051, 322.182437)" x="203.688051" y="322.182437">0.4</text>
     </g>
    </g>
    <g id="xtick_4">
     <g id="line2d_4">
      <g>
       <use style="stroke:#000000;stroke-width:0.8;" x="268.631949" xlink:href="#m3ca7a8ebe7" y="307.584"/>
      </g>
     </g>
     <g id="text_4">
      <text style="font-family:DejaVu Sans;font-size:10px;font-style:normal;font-weight:normal;text-anchor:middle;" transform="rotate(-0, 268.631949, 322.182437)" x="268.631949" y="322.182437">0.6</text>
     </g>
    </g>
    <g id="xtick_5">
     <g id="line2d_5">
      <g>
       <use style="stroke:#000000;stroke-width:0.8;" x="333.575847" xlink:href="#m3ca7a8ebe7" y="307.584"/>
      </g>
     </g>
     <g id="text_5">
      <text style="font-family:DejaVu Sans;font-size:10px;font-style:normal;font-weight:normal;text-anchor:middle;" transform="rotate(-0, 333.575847, 322.182437)" x="333.575847" y="322.182437">0.8</text>
     </g>
    </g>
    <g id="xtick_6">
     <g id="line2d_6">
      <g>
       <use style="stroke:#000000;stroke-width:0.8;" x="398.519745" xlink:href="#m3ca7a8ebe7" y="307.584"/>
      </g>
     </g>
     <g id="text_6">
      <text style="font-family:DejaVu Sans;font-size:10px;font-style:normal;font-weight:normal;text-anchor:middle;" transform="rotate(-0, 398.519745, 322.182437)" x="398.519745" y="322.182437">1.0</text>
     </g>
    </g>
    <g id="text_7">
     <text style="font-family:DejaVu Sans;font-size:10px;font-style:normal;font-weight:normal;text-anchor:middle;" transform="rotate(-0, 236.16, 335.860562)" x="236.16" y="335.860562">Probability</text>
    </g>
   </g>
   <g id="matplotlib.axis_2">
    <g id="ytick_1">
     <g id="line2d_7">
      <defs>
       <path d="M 0 0 
L -3.5 0 
" id="mb0d44665c2" style="stroke:#000000;stroke-width:0.8;"/>
      </defs>
      <g>
       <use style="stroke:#000000;stroke-width:0.8;" x="57.6" xlink:href="#mb0d44665c2" y="300.551074"/>
      </g>
     </g>
     <g id="text_8">
      <text style="font-family:DejaVu Sans;font-size:10px;font-style:normal;font-weight:normal;text-anchor:end;" transform="rotate(-0, 50.6, 304.350293)" x="50.6" y="304.350293">6.5</text>
     </g>
    </g>
    <g id="ytick_2">
     <g id="line2d_8">
      <g>
       <use style="stroke:#000000;stroke-width:0.8;" x="57.6" xlink:href="#mb0d44665c2" y="260.995809"/>
      </g>
     </g>
     <g id="text_9">
      <text style="font-family:DejaVu Sans;font-size:10px;font-style:normal;font-weight:normal;text-anchor:end;" transform="rotate(-0, 50.6, 264.795028)" x="50.6" y="264.795028">7.0</text>
     </g>
    </g>
    <g id="ytick_3">
     <g id="line2d_9">
      <g>
       <use style="stroke:#000000;stroke-width:0.8;" x="57.6" xlink:href="#mb0d44665c2" y="221.440544"/>
      </g>
     </g>
     <g id="text_10">
      <text style="font-family:DejaVu Sans;font-size:10px;font-style:normal;font-weight:normal;text-anchor:end;" transform="rotate(-0, 50.6, 225.239763)" x="50.6" y="225.239763">7.5</text>
     </g>
    </g>
    <g id="ytick_4">
     <g id="line2d_10">
      <g>
       <use style="stroke:#000000;stroke-width:0.8;" x="57.6" xlink:href="#mb0d44665c2" y="181.885279"/>
      </g>
     </g>
     <g id="text_11">
      <text style="font-family:DejaVu Sans;font-size:10px;font-style:normal;font-weight:normal;text-anchor:end;" transform="rotate(-0, 50.6, 185.684498)" x="50.6" y="185.684498">8.0</text>
     </g>
    </g>
    <g id="ytick_5">
     <g id="line2d_11">
      <g>
       <use style="stroke:#000000;stroke-width:0.8;" x="57.6" xlink:href="#mb0d44665c2" y="142.330014"/>
      </g>
     </g>
     <g id="text_12">
      <text style="font-family:DejaVu Sans;font-size:10px;font-style:normal;font-weight:normal;text-anchor:end;" transform="rotate(-0, 50.6, 146.129233)" x="50.6" y="146.129233">8.5</text>
     </g>
    </g>
    <g id="ytick_6">
     <g id="line2d_12">
      <g>
       <use style="stroke:#000000;stroke-width:0.8;" x="57.6" xlink:href="#mb0d44665c2" y="102.77475"/>
      </g>
     </g>
     <g id="text_13">
      <text style="font-family:DejaVu Sans;font-size:10px;font-style:normal;font-weight:normal;text-anchor:end;" transform="rotate(-0, 50.6, 106.573968)" x="50.6" y="106.573968">9.0</text>
     </g>
    </g>
    <g id="ytick_7">
     <g id="line2d_13">
      <g>
       <use style="stroke:#000000;stroke-width:0.8;" x="57.6" xlink:href="#mb0d44665c2" y="63.219485"/>
      </g>
     </g>
     <g id="text_14">
      <text style="font-family:DejaVu Sans;font-size:10px;font-style:normal;font-weight:normal;text-anchor:end;" transform="rotate(-0, 50.6, 67.018703)" x="50.6" y="67.018703">9.5</text>
     </g>
    </g>
    <g id="text_15">
     <text style="font-family:DejaVu Sans;font-size:10px;font-style:normal;font-weight:normal;text-anchor:middle;" transform="rotate(-90, 28.617187, 174.528)" x="28.617187" y="174.528">Average Bits Consumed Per Call</text>
    </g>
   </g>
   <g id="line2d_14">
    <path clip-path="url(#pe4c2997ae5)" d="M 73.832727 165.746731 
L 77.112066 138.69093 
L 80.391405 123.81815 
L 83.670744 79.041591 
L 86.950083 129.830551 
L 90.229421 121.286613 
L 93.50876 84.262886 
L 96.788099 154.354815 
L 100.067438 169.385816 
L 103.346777 109.736476 
L 106.626116 53.568 
L 109.905455 139.482035 
L 113.184793 147.076646 
L 116.464132 151.506836 
L 119.743471 125.875024 
L 123.02281 100.243213 
L 126.302149 180.777732 
L 129.581488 103.724076 
L 132.860826 113.217339 
L 136.140165 79.041591 
L 139.419504 94.389033 
L 142.698843 122.552382 
L 145.978182 154.038373 
L 149.257521 204.510891 
L 152.53686 86.319759 
L 155.816198 118.596855 
L 159.095537 126.349687 
L 162.374876 152.13972 
L 165.654215 143.12112 
L 168.933554 119.071519 
L 172.212893 128.564782 
L 175.492231 143.754004 
L 178.77157 177.45509 
L 182.050909 128.881224 
L 185.330248 157.361015 
L 188.609587 156.728131 
L 191.888926 154.354815 
L 195.168264 122.710603 
L 198.447603 139.798477 
L 201.726942 216.535691 
L 205.006281 164.955626 
L 208.28562 128.090119 
L 211.564959 142.171793 
L 214.844298 180.935953 
L 218.123636 155.462362 
L 221.402975 110.211139 
L 224.682314 207.35887 
L 227.961653 205.301996 
L 231.240992 201.662912 
L 234.520331 137.425162 
L 237.799669 180.619511 
L 241.079008 211.630838 
L 244.358347 216.693912 
L 247.637686 122.868824 
L 250.917025 114.79955 
L 254.196364 209.573965 
L 257.475702 196.283396 
L 260.755041 171.759131 
L 264.03438 192.960753 
L 267.313719 203.086901 
L 270.593058 207.991754 
L 273.872397 171.917353 
L 277.151736 163.689857 
L 280.431074 230.142702 
L 283.710413 212.421944 
L 286.989752 236.946208 
L 290.269091 144.228667 
L 293.54843 218.909007 
L 296.827769 213.529491 
L 300.107107 172.708458 
L 303.386446 183.942153 
L 306.665785 194.542964 
L 309.945124 195.49229 
L 313.224463 157.519236 
L 316.503802 171.917353 
L 319.78314 193.91008 
L 323.062479 199.289596 
L 326.341818 229.984481 
L 329.621157 179.0373 
L 332.900496 217.485018 
L 336.179835 200.397143 
L 339.459174 234.098229 
L 342.738512 263.210904 
L 346.017851 240.585292 
L 349.29719 202.92868 
L 352.576529 242.009282 
L 355.855868 211.156175 
L 359.135207 254.666967 
L 362.414545 256.090956 
L 365.693884 254.034082 
L 368.973223 268.906862 
L 372.252562 239.794187 
L 375.531901 195.175848 
L 378.81124 238.68664 
L 382.090579 295.488 
L 385.369917 233.623566 
L 388.649256 240.743513 
L 391.928595 230.933808 
L 395.207934 273.653494 
L 398.487273 267.324651 
" style="fill:none;stroke:#1f77b4;stroke-linecap:square;stroke-width:1.5;"/>
   </g>
   <g id="patch_3">
    <path d="M 57.6 307.584 
L 57.6 41.472 
" style="fill:none;stroke:#000000;stroke-linecap:square;stroke-linejoin:miter;stroke-width:0.8;"/>
   </g>
   <g id="patch_4">
    <path d="M 414.72 307.584 
L 414.72 41.472 
" style="fill:none;stroke:#000000;stroke-linecap:square;stroke-linejoin:miter;stroke-width:0.8;"/>
   </g>
   <g id="patch_5">
    <path d="M 57.6 307.584 
L 414.72 307.584 
" style="fill:none;stroke:#000000;stroke-linecap:square;stroke-linejoin:miter;stroke-width:0.8;"/>
   </g>
   <g id="patch_6">
    <path d="M 57.6 41.472 
L 414.72 41.472 
" style="fill:none;stroke:#000000;stroke-linecap:square;stroke-linejoin:miter;stroke-width:0.8;"/>
   </g>
   <g id="text_16">
    <text style="font-family:DejaVu Sans;font-size:12px;font-style:normal;font-weight:normal;text-anchor:middle;" transform="rotate(-0, 236.16, 35.472)" x="236.16" y="35.472">Avg. Bits Consumed by arctan(x) (Two-Coin Special Case) Algorithm</text>
   </g>
   <g id="legend_1">
    <g id="patch_7">
     <path d="M 207.48875 64.150125 
L 407.72 64.150125 
Q 409.72 64.150125 409.72 62.150125 
L 409.72 48.472 
Q 409.72 46.472 407.72 46.472 
L 207.48875 46.472 
Q 205.48875 46.472 205.48875 48.472 
L 205.48875 62.150125 
Q 205.48875 64.150125 207.48875 64.150125 
z
" style="fill:#ffffff;opacity:0.8;stroke:#cccccc;stroke-linejoin:miter;"/>
    </g>
    <g id="line2d_15">
     <path d="M 209.48875 54.570438 
L 229.48875 54.570438 
" style="fill:none;stroke:#1f77b4;stroke-linecap:square;stroke-width:1.5;"/>
    </g>
    <g id="line2d_16"/>
    <g id="text_17">
     <text style="font-family:DejaVu Sans;font-size:10px;font-style:normal;font-weight:normal;text-anchor:start;" transform="rotate(-0, 237.48875, 58.070438)" x="237.48875" y="58.070438">arctan(x) (Two-Coin Special Case)</text>
    </g>
   </g>
  </g>
 </g>
 <defs>
  <clipPath id="pe4c2997ae5">
   <rect height="266.112" width="357.12" x="57.6" y="41.472"/>
  </clipPath>
 </defs>
</svg>

<svg height="460.8" viewBox="0 0 460.8 345.6" width="614.4" xmlns="http://www.w3.org/2000/svg" xmlns:xlink="http://www.w3.org/1999/xlink"><defs><style>*{stroke-linecap:butt;stroke-linejoin:round}</style></defs><g id="figure_1"><path d="M0 345.6h460.8V0H0z" fill="#fff" id="patch_1"/><g id="axes_1"><path d="M57.6 307.584h357.12V41.472H57.6z" fill="#fff" id="patch_2"/><g id="matplotlib.axis_1"><g id="xtick_1"><g id="line2d_1"><defs><path d="M0 0v3.5" id="m3ca7a8ebe7" stroke="#000" stroke-width=".8"/></defs><use x="73.8" xlink:href="#m3ca7a8ebe7" y="307.584" stroke="#000" stroke-width=".8"/></g><text x="73.8" y="322.182" font-family="DejaVu Sans" font-size="10" font-weight="400" text-anchor="middle" id="text_1">0.0</text></g><g id="xtick_2"><use x="138.744" xlink:href="#m3ca7a8ebe7" y="307.584" stroke="#000" stroke-width=".8" id="line2d_2"/><text x="138.744" y="322.182" font-family="DejaVu Sans" font-size="10" font-weight="400" text-anchor="middle" id="text_2">0.2</text></g><g id="xtick_3"><use x="203.688" xlink:href="#m3ca7a8ebe7" y="307.584" stroke="#000" stroke-width=".8" id="line2d_3"/><text x="203.688" y="322.182" font-family="DejaVu Sans" font-size="10" font-weight="400" text-anchor="middle" id="text_3">0.4</text></g><g id="xtick_4"><use x="268.632" xlink:href="#m3ca7a8ebe7" y="307.584" stroke="#000" stroke-width=".8" id="line2d_4"/><text x="268.632" y="322.182" font-family="DejaVu Sans" font-size="10" font-weight="400" text-anchor="middle" id="text_4">0.6</text></g><g id="xtick_5"><use x="333.576" xlink:href="#m3ca7a8ebe7" y="307.584" stroke="#000" stroke-width=".8" id="line2d_5"/><text x="333.576" y="322.182" font-family="DejaVu Sans" font-size="10" font-weight="400" text-anchor="middle" id="text_5">0.8</text></g><g id="xtick_6"><use x="398.52" xlink:href="#m3ca7a8ebe7" y="307.584" stroke="#000" stroke-width=".8" id="line2d_6"/><text x="398.52" y="322.182" font-family="DejaVu Sans" font-size="10" font-weight="400" text-anchor="middle" id="text_6">1.0</text></g><text x="236.16" y="335.861" font-family="DejaVu Sans" font-size="10" font-weight="400" text-anchor="middle" id="text_7">Probability</text></g><g id="matplotlib.axis_2"><g id="ytick_1"><g id="line2d_7"><defs><path d="M0 0h-3.5" id="mb0d44665c2" stroke="#000" stroke-width=".8"/></defs><use x="57.6" xlink:href="#mb0d44665c2" y="300.551" stroke="#000" stroke-width=".8"/></g><text x="50.6" y="304.35" font-family="DejaVu Sans" font-size="10" font-weight="400" text-anchor="end" id="text_8">6.5</text></g><g id="ytick_2"><use x="57.6" xlink:href="#mb0d44665c2" y="260.996" stroke="#000" stroke-width=".8" id="line2d_8"/><text x="50.6" y="264.795" font-family="DejaVu Sans" font-size="10" font-weight="400" text-anchor="end" id="text_9">7.0</text></g><g id="ytick_3"><use x="57.6" xlink:href="#mb0d44665c2" y="221.441" stroke="#000" stroke-width=".8" id="line2d_9"/><text x="50.6" y="225.24" font-family="DejaVu Sans" font-size="10" font-weight="400" text-anchor="end" id="text_10">7.5</text></g><g id="ytick_4"><use x="57.6" xlink:href="#mb0d44665c2" y="181.885" stroke="#000" stroke-width=".8" id="line2d_10"/><text x="50.6" y="185.684" font-family="DejaVu Sans" font-size="10" font-weight="400" text-anchor="end" id="text_11">8.0</text></g><g id="ytick_5"><use x="57.6" xlink:href="#mb0d44665c2" y="142.33" stroke="#000" stroke-width=".8" id="line2d_11"/><text x="50.6" y="146.129" font-family="DejaVu Sans" font-size="10" font-weight="400" text-anchor="end" id="text_12">8.5</text></g><g id="ytick_6"><use x="57.6" xlink:href="#mb0d44665c2" y="102.775" stroke="#000" stroke-width=".8" id="line2d_12"/><text x="50.6" y="106.574" font-family="DejaVu Sans" font-size="10" font-weight="400" text-anchor="end" id="text_13">9.0</text></g><g id="ytick_7"><use x="57.6" xlink:href="#mb0d44665c2" y="63.219" stroke="#000" stroke-width=".8" id="line2d_13"/><text x="50.6" y="67.019" font-family="DejaVu Sans" font-size="10" font-weight="400" text-anchor="end" id="text_14">9.5</text></g><text transform="rotate(-90 28.617 174.528)" x="28.617" y="174.528" font-family="DejaVu Sans" font-size="10" font-weight="400" text-anchor="middle" id="text_15">Average Bits Consumed Per Call</text></g><path clip-path="url(#pe4c2997ae5)" d="M73.833 165.747l3.28-27.056 3.278-14.873 3.28-44.776 3.28 50.789 3.278-8.544 3.28-37.024 3.28 70.092 3.278 15.03 3.28-59.649 3.28-56.168 3.278 85.914 3.28 7.595 3.28 4.43 3.278-25.632 3.28-25.632 3.28 80.535 3.278-77.054 3.28 9.493 3.28-34.175 3.279 15.347 3.279 28.163 3.28 31.486 3.279 50.473 3.279-118.191 3.28 32.277 3.279 7.753 3.279 25.79 3.28-9.019 3.279-24.05 3.279 9.494 3.28 15.189 3.279 33.701 3.279-48.574 3.28 28.48 3.279-.633 3.279-2.373 3.28-31.644 3.279 17.087 3.279 76.738 3.28-51.58 3.279-36.866 3.279 14.082 3.28 38.764 3.279-25.474 3.279-45.25 3.28 97.147 3.279-2.057 3.279-3.64 3.28-64.237 3.279 43.195 3.279 31.01 3.28 5.064 3.279-93.825 3.279-8.07 3.28 94.775 3.279-13.29 3.279-24.525 3.28 21.202 3.279 10.126 3.28 4.905 3.278-36.075 3.28-8.227 3.28 66.453 3.278-17.721 3.28 24.524 3.28-92.717 3.278 74.68 3.28-5.38 3.28-40.82 3.278 11.233 3.28 10.601 3.28.95 3.278-37.974 3.28 14.398 3.28 21.993 3.278 5.38 3.28 30.694 3.28-50.947 3.278 38.448 3.28-17.088 3.28 33.701 3.279 29.113 3.279-22.626 3.28-37.656 3.279 39.08 3.279-30.853 3.28 43.511 3.279 1.424 3.279-2.057 3.28 14.873 3.279-29.113 3.279-44.618 3.28 43.51 3.279 56.802 3.279-61.864 3.28 7.12 3.279-9.81 3.279 42.72 3.28-6.33" fill="none" stroke="#1f77b4" stroke-linecap="square" stroke-width="1.5" id="line2d_14"/><path d="M57.6 307.584V41.472" fill="none" stroke="#000" stroke-linecap="square" stroke-width=".8" id="patch_3"/><path d="M414.72 307.584V41.472" fill="none" stroke="#000" stroke-linecap="square" stroke-width=".8" id="patch_4"/><path d="M57.6 307.584h357.12" fill="none" stroke="#000" stroke-linecap="square" stroke-width=".8" id="patch_5"/><path d="M57.6 41.472h357.12" fill="none" stroke="#000" stroke-linecap="square" stroke-width=".8" id="patch_6"/><text x="236.16" y="35.472" font-family="DejaVu Sans" font-size="12" font-weight="400" text-anchor="middle" id="text_16">Avg. Bits Consumed by arctan(x) (Two-Coin Special Case) Algorithm</text><g id="legend_1"><path d="M207.489 64.15H407.72q2 0 2-2V48.472q0-2-2-2H207.489q-2 0-2 2V62.15q0 2 2 2z" fill="#fff" opacity=".8" stroke="#ccc" id="patch_7"/><path d="M209.489 54.57h20" fill="none" stroke="#1f77b4" stroke-linecap="square" stroke-width="1.5" id="line2d_15"/><text x="237.489" y="58.07" font-family="DejaVu Sans" font-size="10" font-weight="400" id="text_17">arctan(x) (Two-Coin Special Case)</text></g></g></g><defs><clipPath id="pe4c2997ae5"><path d="M57.6 41.472h357.12v266.112H57.6z"/></clipPath></defs></svg>
